ix/code_bulk.svg

<svg viewBox="0 0 24 24" fill="none" xmlns="http://www.w3.org/2000/svg" height="1em" width="1em">
  <path opacity="0.4" d="M16.19 2H7.81C4.17 2 2 4.17 2 7.81V16.18C2 19.83 4.17 22 7.81 22H16.18C19.82 22 21.99 19.83 21.99 16.19V7.81C22 4.17 19.83 2 16.19 2Z" fill="#292D32"/>
  <path d="M6.89088 15.75C6.61088 15.75 6.35088 15.6 6.22088 15.34C6.03088 14.97 6.18088 14.52 6.56088 14.33C7.43088 13.9 8.17088 13.24 8.70088 12.44C8.88088 12.17 8.88088 11.83 8.70088 11.56C8.16088 10.76 7.42088 10.1 6.56088 9.67002C6.18088 9.49002 6.03088 9.04002 6.22088 8.66002C6.40088 8.29002 6.85088 8.14002 7.22088 8.33002C8.32088 8.88002 9.26088 9.71002 9.94088 10.73C10.4509 11.5 10.4509 12.5 9.94088 13.27C9.26088 14.29 8.32088 15.12 7.22088 15.67C7.12088 15.72 7.00088 15.75 6.89088 15.75Z" fill="#292D32"/>
  <path d="M17 15.75H13C12.59 15.75 12.25 15.41 12.25 15C12.25 14.59 12.59 14.25 13 14.25H17C17.41 14.25 17.75 14.59 17.75 15C17.75 15.41 17.41 15.75 17 15.75Z" fill="#292D32"/>
</svg>

<svg viewBox="0 0 24 24" fill="none" xmlns="http://www.w3.org/2000/svg" height="1em" width="1em">
  <path opacity=".4" d="M16.19 2H7.81C4.17 2 2 4.17 2 7.81v8.37C2 19.83 4.17 22 7.81 22h8.37c3.64 0 5.81-2.17 5.81-5.81V7.81C22 4.17 19.83 2 16.19 2Z" fill="#292D32"/>
  <path d="M6.89 15.75c-.28 0-.54-.15-.67-.41a.745.745 0 0 1 .34-1.01c.87-.43 1.61-1.09 2.14-1.89.18-.27.18-.61 0-.88-.54-.8-1.28-1.46-2.14-1.89a.74.74 0 0 1-.34-1.01c.18-.37.63-.52 1-.33 1.1.55 2.04 1.38 2.72 2.4a2.3 2.3 0 0 1 0 2.54 7.077 7.077 0 0 1-2.72 2.4c-.1.05-.22.08-.33.08Zm10.11 0h-4c-.41 0-.75-.34-.75-.75s.34-.75.75-.75h4c.41 0 .75.34.75.75s-.34.75-.75.75Z" fill="#292D32"/>
</svg>
